resources/svg/text-t-duotone.svg

<svg xmlns="http://www.w3.org/2000/svg" viewBox="0 0 256 256" fill="currentColor"><path d="M215.99414,55.99512v32a8,8,0,1,1-16,0v-24h-64v128h24a8,8,0,0,1,0,16h-64a8,8,0,0,1,0-16h24v-128h-64v24a8,8,0,0,1-16,0v-32a8.00008,8.00008,0,0,1,8-8h160A8.00008,8.00008,0,0,1,215.99414,55.99512Z"/></svg>

<svg xmlns="http://www.w3.org/2000/svg" viewBox="0 0 256 256" fill="currentColor"><path d="M216,56V88a8,8,0,0,1-16,0V64H136V192h24a8,8,0,0,1,0,16H96a8,8,0,0,1,0-16h24V64H56V88a8,8,0,0,1-16,0V56a8,8,0,0,1,8-8H208A8,8,0,0,1,216,56Z"/></svg>
